X:1
T:BWV 826 Capriccio Strings Arrangement
T:BWV 826 Capriccio Strings Arrangement
T:J. S. Bach
C:J. S. Bach
%%score 1 2 3
L:1/8
Q:1/4=104
M:2/4
K:Eb
V:1 treble nm="Violin"
V:2 alto nm="Viola"
V:3 bass nm="Violoncello"
V:1
 z .G !^!c2- | cd/c/ =B/=A/G/F/ | .E.g .D.f | e/d/c/d/ =e/^f/g/=a/ | b/g/^f/g/ d/g/f/g/ | %5
 c'/g/^f/g/ =a/g/f/=e/ | .d (g2 ^f) | g z z2 | z/ c/^F/G/ =A/B/c- | c/B/=A/B/ c/d/=e/^f/ | %10
 g^f/g/- g2- | g=e/g/- g2- | g=e/f/- f2- | fd/f/- f2- | f/e/d/f/ e/d/c/=B/ | c/=B/c/d/ e/f/g- | %16
 g/f/e/g/ f/e/d/c/ | =B/=A/B/c/ d/e/f- | f/a/g/f/ e/d/c/B/ | A/c/f/e/ d/c/=B/d/ | %20
 g/f/e/g/ f/e/d/f/ | z/ c/=B/c/ G/c/B/c/ | e/c/=a/e/ c'/e/d/c/ | !>!d/B/=A/B/ F/B/A/B/ | %24
 d/B/g/d/ b/d/c/B/ | !>!c/=A/G/A/ ^F/A/G/A/ | c/=A/^f/c/ =a/c/B/A/ | .B.d (!^!g2 | %28
 g)=a/g/ ^f/=e/d/c/ | .B.d' .=A.c' | .G(b/=a/ .g).b | .=e.g .B.e | .F(a/g/ .f).a | .d.f .A.d | %34
 E2 z .c | !^!A2 z2 | z .G !^!c2- | cd/c/ =B/=A/G/F/ | .E.g .Df- | f/e/d/f/ e/d/c/B/ | %40
 A/G/A/B/ c/d/e- | e/d/c/e/ d/c/B/A/ | G/F/G/A/ B/c/_d- | d/c/B/_d/ c/B/A/G/ | !>!A4- | AG G2- | %46
 GA/G/ F/E/D/C/ | G4 :: z .d !^!G2- | GF/G/ =A/=B/c/d/ | .e.C .f.D | g/a/g/f/ e/d/c/B/ | %52
 .A.f .G.=e | f/c'/=e/f/ z/ c'/e/f/- | f z z2 | z (f/g/ a/b/c'/d/ | .e) z z2 | z (e/f/ g/a/b/g/ | %58
 a) z z2 | z/ g/f/e/ d/c/=B/=A/ | =B/c/d/e/ f2- | f/e/=B/c/ z/ e/B/c/ | z/ d/=B/c/ z/ c/B/c/- | %63
 c.g .d!^!f- | (fe/f/ g2-) | g.f .c!^!e- | (ed/e/ f2-) | fe/d/ c/B/=A/G/ | !>!c4- | c3 c | B2 =A2 | %71
 z/ =a/^f/g/ z/ a/f/g/ | z .g !^!e2- | e (d2 c-) | .c(e dc) | .B(g =A^f) | g2 z .f | !^!=B2 z2 | %78
 z .g !^!c2- | cB/c/ d/=e/f/g/ | a<c' a/c'/b/c'/ | a<c' a/b/a/b/ | g<b g/b/a/b/ | g<b g/a/g/a/ | %84
 f<a f/a/g/a/ | f<a f/g/f/g/ | e/g/d/g/ c/f/B/e/ | A/c/f/e/ f2 | z .c !^!g2- | ga/g/ f/e/d/c/ | %90
 =B2 z .e | !^!c2 z2 | z .G !^!f2- | (fd) gf | e2 d2 | [Gc]4 :| %96
V:2
 !>!E,2 z .E, | !^!F,2 z =B, | (C3 =B,) | C z z2 | z .D !^!G2- | G=A/G/ ^F/=E/D/C/ | .B,.d .=A,c | %7
 c/B/=A/c/ B/A/G/F/ | EC z ^F | G z z =A | B<d B/_d/c/d/ | B<_d B/c/B/c/ | A<c A/c/B/c/ | %13
 A<B A/B/A/B/ | G z z2 | z (E/F/ G/=A/=B/c/ | .d) z z2 | z (D/E/ F/G/=A/B/ | .c) z z2 | z4 | %20
 z (c2 =B) | e2 z2 | z4 | z4 | z4 | z4 | z4 | z/ G,/^F,/G,/ D,/G,/F,/G,/ | %28
 C,/G,/^F,/G,/ =A,/G,/F,/=E,/ | .D, (G,2 ^F,) | z/ G,/^F,/G,/ D,/G,/F,/G,/ | %31
 B,/G,/=E/B,/ G/B,/A,/G,/ | A,/F,/=E,/F,/ C,/F,/E,/F,/ | A,/F,/D/A,/ F/A,/G,/F,/ | .G,.B, !^!E2- | %35
 EF/E/ D/C/B,/A,/ | G,2 z .C | !^!F2 z2 | z (E, F,G,-) | G,.G, !^!C2- | CC/D/ E/F/G/A/ | %41
 .B.F, !^!B,2- | B,B,/C/ D/E/F/G/ | .AG, F,=E, | .F,/F/=E/G/ F/_E/D/C/ | =B,2 z E | C4 | =B,4 :: %48
 =B,2 z .D | (G, C2 =B,) | z/ G,/A,/G,/ z/ F,/G,/F,/ | E,.G !^!C2- | CB,/C/ D/=E/F/G/ | %53
 .A.F, .B.G, | c/_d/c/B/ A/G/F/E/ | D/C/D/E/ F/G/A- | A/c/B/A/ G/F/E/D/ | C/=B,/C/D/ E/F/G- | %58
 G/B/A/G/ F/E/D/C/ | =B, z z2 | z2 z (d | G2 F2 | E2 D2 | E).e .=B!^!d- | d3 c/B/ | =A3 !^!c- | %66
 c3 B/A/ | G2 z2 | z (B =AG | ^F).=A !^!D2- | DC/D/ =E/^F/G/=A/ | .B.G, .c.=A, | d3 .c | %73
 .^F !^!B2 =A- | .A(^F G=A) | .D z z/ (e/d/c/ | =B).d !^!G2- | GF/G/ =A/=B/c/d/ | %78
 e/=B,/C/D/ E/F/G/A/ | B/A/G/A/ B/c/d/=e/ | f=e/f/- f2- | f=e/f/- f2- | fd/e/- e2- | ed/e/- e2- | %84
 ec/d/- d2- | dc/d/- d2 | cB AG | F2 z/ c/=B/d/ | G2 z e | !^!c2 z2 | z .D !^!G2- | %91
 GA/G/ F/E/D/C/ | =B,2 z .d | (G=B) c[Ad-] | [G-d][Gc-] [F-c][F=B] | E4 :| %96
V:3
 !>!C,2 z .C, | !^!D,2 z2 | z (E, F,G, | .C,)(C B,=A,) | !>!G,2 z .G, | !^!=A,2 z2 | z (B,, C,D, | %7
 .G,,).D, !^!G,2- | G,=A,/G,/ ^F,/=E,/D,/C,/ | .B,,.D .=A,,.C | .G,,.B, .F,,.A, | %11
 .=E,,.G, .C,,.=E, | .F,,.A, .E,,.G, | .D,,.F, .B,,.D, | .E,,(E, F,G, | .A,) z z2 | z (D, E,F, | %17
 .G,) z z2 | z .G, !^!C2- | CD/C/ =B,/=A,/G,/F,/ | .E,.G .D,.F | .C,(E/D/ .C).E | .=A,.C .F,.A, | %23
 .B,,(D/C/ .B,).D | .G,.B, .E,.G, | .=A,,(C/B,/ .=A,).C | .^F,.=A, .D,.F, | G,, z B,, z | %28
 =A,, z C, z | z (B,, C,D,) | G,, z B,, z | z2 C, z | F, z A,, z | z2 B,, z | %34
 z/ F,/E,/D,/ C,/B,,/A,,/G,,/ | .F,,/E,/D,/C,/ B,,/A,,/G,,/F,,/ | %36
 .E,,/D,/C,/B,,/ A,,/G,,/F,,/E,,/ | .D,,/C,/B,,/A,,/ G,,/F,,/E,,/D,,/ | .C,, (C,2 =B,,) | %39
 C,2 z/ (C,/D,/E,/ | .F,) z z2 | B,,2 z/ (B,,/C,/D,/ | .E,) z z2 | z (A,, B,,C, | %44
 .F,,).C, !^!F,2- | F,/E,/D,/F,/ E,/D,/C,/B,,/ | .A,,.G,, MA,,2 | G,,4 :: G,2 z .F, | E,2 D,2 | %50
 C, z D, z | E,2 z =E, | F,2 B,C | .F z .G z | A(F, G,=A, | .B,) z z2 | z (E, F,G, | .A,) z z2 | %58
 z (D, E,F, | G,).D, !^!G,,2- | G,,F,,/G,,/ =A,,/=B,,/C,/D,/ | .E,.C,, .F,.D,, | .G,.E,, .A,.F,, | %63
 G,/G,,/G,/A,/ G,/F,/E,/D,/ | C,/G,/C/D/ C/B,/=A,/G,/ | F,/F,,/F,/G,/ F,/E,/D,/C,/ | %66
 B,,/F,/B,/C/ B,/A,/G,/F,/ | E,/E,,/E,/F,/ E,/D,/C,/B,,/ | =A,,/G,,/A,,/B,,/ C,/D,/E,/C,/ | %69
 D,/C,/D,/=E,/ ^F,/G,/=A,/F,/ | .G,.E, .C,.D, | G,, z E, z | G,,/G,/^F,/G,/ C,/=A,/F,/G,/ | %73
 D,/B,/^F,/G,/ E,/C/F,/G,/ | ^F,,/E,/D,/C,/ B,,/=A,,/G,,/F,,/ | G,,/F,,/E,,/D,,/ .C,,.D,, | %76
 G,,/^F,,/G,,/=A,,/ =B,,/C,/D,/E,/ | F,/E,/D,/E,/ F,/G,/=A,/=B,/ | C z z .C | .=E, z z .C | %80
 .F,.A .E,.G | .D,.F .B,,.D | .E,.G .D,.F | .C,.E .A,,.C | .D,.F .C,.E | .=B,,.D .G,,.=B, | %86
 .C,.G, !^!C2- | CD/C/ =B,/=A,/G,/F,/ | E,/D,/C,/D,/ E,/F,/G,/E,/ | A,/G,/F,/G,/ A,2- | %90
 A,/A,/G,/F,/ E,/D,/C,/B,,/ | .A,,/G,/F,/E,/ D,/C,/=B,,/=A,,/ | .G,,/E,/D,/C,/ =B,,/=A,,/G,,/F,,/ | %93
 .E,,/A,,/G,,/F,,/ E,,/D,,/E,,/F,,/ | G,,/C,/E,/^F,/ .G,.G,, | [C,,C,]4 :| %96

